X:26
T:Cheremshyna
% F harp
Q:1/4=80
L:1/8
M:4/4
K:Cmaj
A,A,A, B,C A,CE | G F3-F4 | GGG AGF ED |
F E3-E4 | DEFD BAFD | F E3-E4 | DDDD GFED |
E A,3-A,4 | ccc A^G ABA | F D3-D4 |
BBB ^GFE B,D | D C3-C4 | AA FD A A3 |
DF EDF E3 | D3 C B,2 E2 | A,4 z4 |

